src/components/Stake/assets/wallet.svg

<svg width="49" height="49" viewBox="0 0 49 49" fill="none" xmlns="http://www.w3.org/2000/svg">
<path d="M34.8086 24.0064V21.8636C34.8086 21.0745 34.137 20.435 33.3086 20.435H16.8086C15.9813 20.435 15.3086 19.7943 15.3086 19.0064C15.3086 18.2186 15.9813 17.5778 16.8086 17.5778H33.3086C34.137 17.5778 34.8086 16.9382 34.8086 16.1493C34.8086 15.3603 34.137 14.7207 33.3086 14.7207H16.8086C14.3271 14.7207 12.3086 16.6432 12.3086 19.0064V20.435V31.8636C12.3086 33.4415 13.6518 34.7207 15.3086 34.7207H33.3086C34.137 34.7207 34.8086 34.0812 34.8086 33.2921V31.1493C35.637 31.1493 36.3086 30.5097 36.3086 29.7207V25.435C36.3086 24.646 35.637 24.0064 34.8086 24.0064ZM32.5586 29.0064C31.7302 29.0064 31.0586 28.3669 31.0586 27.5778C31.0586 26.7888 31.7302 26.1493 32.5586 26.1493C33.387 26.1493 34.0586 26.7888 34.0586 27.5778C34.0586 28.3669 33.387 29.0064 32.5586 29.0064Z" fill="url(#paint0_linear)"/>
<circle opacity="0.6" cx="24.3086" cy="24.8516" r="24" fill="#EBFAFD"/>
<path d="M34.8086 24.0064V21.8636C34.8086 21.0745 34.137 20.435 33.3086 20.435H16.8086C15.9813 20.435 15.3086 19.7943 15.3086 19.0064C15.3086 18.2186 15.9813 17.5778 16.8086 17.5778H33.3086C34.137 17.5778 34.8086 16.9382 34.8086 16.1493C34.8086 15.3603 34.137 14.7207 33.3086 14.7207H16.8086C14.3271 14.7207 12.3086 16.6432 12.3086 19.0064V20.435V31.8636C12.3086 33.4415 13.6518 34.7207 15.3086 34.7207H33.3086C34.137 34.7207 34.8086 34.0812 34.8086 33.2921V31.1493C35.637 31.1493 36.3086 30.5097 36.3086 29.7207V25.435C36.3086 24.646 35.637 24.0064 34.8086 24.0064ZM32.5586 29.0064C31.7302 29.0064 31.0586 28.3669 31.0586 27.5778C31.0586 26.7888 31.7302 26.1493 32.5586 26.1493C33.387 26.1493 34.0586 26.7888 34.0586 27.5778C34.0586 28.3669 33.387 29.0064 32.5586 29.0064Z" fill="url(#paint1_linear)"/>
<defs>
<linearGradient id="paint0_linear" x1="24.3086" y1="14.7207" x2="-24.4648" y2="72.8164" gradientUnits="userSpaceOnUse">
<stop stop-color="white"/>
<stop offset="1" stop-color="white" stop-opacity="0"/>
</linearGradient>
<linearGradient id="paint1_linear" x1="25.5973" y1="-19.8614" x2="7.47066" y2="27.0346" gradientUnits="userSpaceOnUse">
<stop stop-color="#32FFF5"/>
<stop offset="1" stop-color="#01BFE3"/>
</linearGradient>
</defs>
</svg>

<svg width="49" height="49" fill="none" xmlns="http://www.w3.org/2000/svg"><path d="M34.809 24.006v-2.142c0-.79-.672-1.429-1.5-1.429h-16.5c-.828 0-1.5-.64-1.5-1.429 0-.787.672-1.428 1.5-1.428h16.5c.828 0 1.5-.64 1.5-1.429s-.672-1.428-1.5-1.428h-16.5c-2.482 0-4.5 1.922-4.5 4.285v12.858c0 1.577 1.343 2.857 3 2.857h18c.828 0 1.5-.64 1.5-1.429V31.15c.828 0 1.5-.64 1.5-1.428v-4.286c0-.789-.672-1.429-1.5-1.429zm-2.25 5c-.829 0-1.5-.64-1.5-1.428 0-.79.671-1.429 1.5-1.429.828 0 1.5.64 1.5 1.429s-.672 1.428-1.5 1.428z" fill="url(#paint0_linear)"/><circle opacity=".6" cx="24.309" cy="24.852" r="24" fill="#EBFAFD"/><path d="M34.809 24.006v-2.142c0-.79-.672-1.429-1.5-1.429h-16.5c-.828 0-1.5-.64-1.5-1.429 0-.787.672-1.428 1.5-1.428h16.5c.828 0 1.5-.64 1.5-1.429s-.672-1.428-1.5-1.428h-16.5c-2.482 0-4.5 1.922-4.5 4.285v12.858c0 1.577 1.343 2.857 3 2.857h18c.828 0 1.5-.64 1.5-1.429V31.15c.828 0 1.5-.64 1.5-1.428v-4.286c0-.789-.672-1.429-1.5-1.429zm-2.25 5c-.829 0-1.5-.64-1.5-1.428 0-.79.671-1.429 1.5-1.429.828 0 1.5.64 1.5 1.429s-.672 1.428-1.5 1.428z" fill="url(#paint1_linear)"/><defs><linearGradient id="paint0_linear" x1="24.309" y1="14.721" x2="-24.465" y2="72.816" gradientUnits="userSpaceOnUse"><stop stop-color="#fff"/><stop offset="1" stop-color="#fff" stop-opacity="0"/></linearGradient><linearGradient id="paint1_linear" x1="25.597" y1="-19.861" x2="7.471" y2="27.035" gradientUnits="userSpaceOnUse"><stop stop-color="#32FFF5"/><stop offset="1" stop-color="#01BFE3"/></linearGradient></defs></svg>
